icons/svg/shape-subtract.svg

<svg width="24" height="24" viewBox="0 0 24 24" fill="none" xmlns="http://www.w3.org/2000/svg">
<path d="M12.7476 2.75H5.74756C4.0907 2.75 2.74756 4.09315 2.74756 5.75V12.75C2.74756 14.4069 4.0907 15.75 5.74756 15.75H8.25244V11.25C8.25244 9.59315 9.59559 8.25 11.2524 8.25H15.7476V5.75C15.7476 4.09315 14.4044 2.75 12.7476 2.75Z" fill="currentColor"/>
<path d="M8.25244 15.75V18.25C8.25244 19.9069 9.59559 21.25 11.2524 21.25H18.2524C19.9093 21.25 21.2524 19.9069 21.2524 18.25V11.25C21.2524 9.59315 19.9093 8.25 18.2524 8.25H15.7476M8.25244 15.75V11.25C8.25244 9.59315 9.59559 8.25 11.2524 8.25H15.7476M8.25244 15.75H5.74756C4.0907 15.75 2.74756 14.4069 2.74756 12.75V5.75C2.74756 4.09315 4.0907 2.75 5.74756 2.75H12.7476C14.4044 2.75 15.7476 4.09315 15.7476 5.75V8.25" stroke="currentColor" stroke-width="1.5" stroke-linecap="round" stroke-linejoin="round"/>
</svg>

<svg xmlns="http://www.w3.org/2000/svg" width="24" height="24" fill="none" viewBox="0 0 24 24"><path fill="currentColor" d="M12.748 2.75h-7a3 3 0 0 0-3 3v7a3 3 0 0 0 3 3h2.504v-4.5a3 3 0 0 1 3-3h4.496v-2.5a3 3 0 0 0-3-3"/><path stroke="currentColor" stroke-linecap="round" stroke-linejoin="round" stroke-width="1.5" d="M8.252 15.75v2.5a3 3 0 0 0 3 3h7a3 3 0 0 0 3-3v-7a3 3 0 0 0-3-3h-2.504m-7.496 7.5v-4.5a3 3 0 0 1 3-3h4.496m-7.496 7.5H5.748a3 3 0 0 1-3-3v-7a3 3 0 0 1 3-3h7a3 3 0 0 1 3 3v2.5"/></svg>
